public/images/ok.svg

<svg width="34" height="35" viewBox="0 0 34 35" fill="none" xmlns="http://www.w3.org/2000/svg">
<circle cx="17" cy="17.5" r="17" fill="white"/>
<path d="M22.3018 19.8743C22.7478 19.4283 22.8115 18.7911 22.4292 18.1539C22.1107 17.6442 21.5372 17.3893 20.9 17.5168C20.6452 17.5805 20.3903 17.7079 20.1354 17.8991C18.1602 19.2371 15.4841 19.1734 13.5089 17.8354C13.3814 17.7716 13.254 17.7079 13.1266 17.6442C12.4257 17.3256 11.7248 17.4531 11.3425 18.0902C10.8965 18.7274 10.9602 19.4283 11.5337 20.0017C11.6611 20.1292 11.7885 20.1929 11.8522 20.3203L11.916 20.384C12.808 21.0849 13.8912 21.5309 15.293 21.7221L14.4646 22.5504C13.7637 23.2513 12.9991 24.0159 12.2983 24.7168C12.1071 24.9079 11.8522 25.2265 11.8522 25.6725C11.8522 26.246 12.1708 26.8194 12.7443 27.0743C12.9354 27.2017 13.1266 27.2017 13.3177 27.2017C13.6363 27.2017 14.0186 27.0743 14.2735 26.7557C15.2292 25.8 15.9938 25.0354 16.7584 24.2708C16.8222 24.207 16.8222 24.207 16.8222 24.207C16.8222 24.207 16.8859 24.207 16.8859 24.2708C17.3956 24.8442 17.9691 25.3539 18.4788 25.9274C18.7337 26.1823 18.9885 26.4371 19.2434 26.692C19.562 27.0106 19.8168 27.138 20.1991 27.138C20.7726 27.2017 21.4098 26.8194 21.6646 26.246C21.9195 25.7362 21.7921 25.0991 21.3461 24.7168C20.7089 24.0796 20.0717 23.3787 19.3708 22.7416L18.2876 21.6584C18.8611 21.5947 19.4983 21.4672 20.0717 21.2124C21.0275 20.8938 21.7284 20.4477 22.3018 19.8743Z" fill="black"/>
<path d="M16.8222 18.0902C19.562 18.0902 21.7921 15.9238 21.7921 13.184C21.7921 11.846 21.2823 10.5716 20.3266 9.61588C19.3708 8.66013 18.1602 8.15039 16.8859 8.15039C14.146 8.15039 11.9797 10.3805 11.916 13.0566C11.916 14.3946 12.4257 15.6053 13.3814 16.561C14.2735 17.5805 15.4841 18.0902 16.8222 18.0902ZM15.4204 11.7185C15.8027 11.3362 16.3124 11.1451 16.8222 11.1451C17.9691 11.1451 18.7974 12.0371 18.7974 13.1203C18.7974 14.2672 17.9053 15.0955 16.8222 15.0955C15.6752 15.0955 14.8469 14.2035 14.8469 13.1203C14.8469 12.6106 15.0381 12.1008 15.4204 11.7185Z" fill="black"/>
<path d="M22.3018 19.8743C22.7478 19.4283 22.8115 18.7911 22.4292 18.1539C22.1107 17.6442 21.5372 17.3893 20.9 17.5168C20.6452 17.5805 20.3903 17.7079 20.1354 17.8991C18.1602 19.2371 15.4841 19.1734 13.5089 17.8354C13.3814 17.7716 13.254 17.7079 13.1266 17.6442C12.4257 17.3256 11.7248 17.4531 11.3425 18.0902C10.8965 18.7274 10.9602 19.4283 11.5337 20.0017C11.6611 20.1292 11.7885 20.1929 11.8522 20.3203L11.916 20.384C12.808 21.0849 13.8912 21.5309 15.293 21.7221L14.4646 22.5504C13.7637 23.2513 12.9991 24.0159 12.2983 24.7168C12.1071 24.9079 11.8522 25.2265 11.8522 25.6725C11.8522 26.246 12.1708 26.8194 12.7443 27.0743C12.9354 27.2017 13.1266 27.2017 13.3177 27.2017C13.6363 27.2017 14.0186 27.0743 14.2735 26.7557C15.2292 25.8 15.9938 25.0354 16.7584 24.2708C16.8222 24.207 16.8222 24.207 16.8222 24.207C16.8222 24.207 16.8859 24.207 16.8859 24.2708C17.3956 24.8442 17.9691 25.3539 18.4788 25.9274C18.7337 26.1823 18.9885 26.4371 19.2434 26.692C19.562 27.0106 19.8168 27.138 20.1991 27.138C20.7726 27.2017 21.4098 26.8194 21.6646 26.246C21.9195 25.7362 21.7921 25.0991 21.3461 24.7168C20.7089 24.0796 20.0717 23.3787 19.3708 22.7416L18.2876 21.6584C18.8611 21.5947 19.4983 21.4672 20.0717 21.2124C21.0275 20.8938 21.7284 20.4477 22.3018 19.8743Z" fill="black"/>
</svg>

<svg width="34" height="35" fill="none" xmlns="http://www.w3.org/2000/svg"><circle cx="17" cy="17.5" r="17" fill="#fff"/><path d="M22.302 19.874c.446-.446.51-1.083.127-1.72-.318-.51-.892-.765-1.529-.637-.255.064-.51.19-.765.382-1.975 1.338-4.65 1.274-6.626-.064l-.382-.19c-.701-.32-1.402-.192-1.785.445-.446.637-.382 1.338.192 1.912.127.127.255.19.318.318l.064.064c.892.7 1.975 1.147 3.377 1.338l-.828.828-2.167 2.167c-.19.19-.446.51-.446.956 0 .573.319 1.146.892 1.401.191.128.383.128.574.128.318 0 .7-.128.956-.446l2.484-2.485.064-.064s.064 0 .064.064c.51.573 1.083 1.083 1.593 1.656l.764.765c.319.319.574.446.956.446.574.064 1.21-.319 1.466-.892a1.275 1.275 0 00-.319-1.53c-.637-.636-1.274-1.337-1.975-1.974l-1.083-1.084c.573-.063 1.21-.19 1.784-.446.956-.318 1.656-.764 2.23-1.338z" fill="#000"/><path d="M16.822 18.09c2.74 0 4.97-2.166 4.97-4.906 0-1.338-.51-2.612-1.465-3.568-.956-.956-2.167-1.466-3.441-1.466-2.74 0-4.906 2.23-4.97 4.907 0 1.338.51 2.548 1.465 3.504.893 1.02 2.103 1.53 3.441 1.53zm-1.402-6.37a1.977 1.977 0 011.402-.574c1.147 0 1.975.892 1.975 1.975 0 1.147-.892 1.976-1.975 1.976-1.147 0-1.975-.893-1.975-1.976 0-.51.191-1.02.573-1.401z" fill="#000"/><path d="M22.302 19.874c.446-.446.51-1.083.127-1.72-.318-.51-.892-.765-1.529-.637-.255.064-.51.19-.765.382-1.975 1.338-4.65 1.274-6.626-.064l-.382-.19c-.701-.32-1.402-.192-1.785.445-.446.637-.382 1.338.192 1.912.127.127.255.19.318.318l.064.064c.892.7 1.975 1.147 3.377 1.338l-.828.828-2.167 2.167c-.19.19-.446.51-.446.956 0 .573.319 1.146.892 1.401.191.128.383.128.574.128.318 0 .7-.128.956-.446l2.484-2.485.064-.064s.064 0 .064.064c.51.573 1.083 1.083 1.593 1.656l.764.765c.319.319.574.446.956.446.574.064 1.21-.319 1.466-.892a1.275 1.275 0 00-.319-1.53c-.637-.636-1.274-1.337-1.975-1.974l-1.083-1.084c.573-.063 1.21-.19 1.784-.446.956-.318 1.656-.764 2.23-1.338z" fill="#000"/></svg>
